img/svg/telegram.svg

<svg width="56" height="56" viewBox="0 0 56 56" fill="inherit" xmlns="http://www.w3.org/2000/svg">
    <g clip-path="url(#clip0_269_4080)">
        <path
            d="M28.008 56C12.448 56.008 -0.00799615 43.5298 3.8514e-06 27.972C0.00800385 12.4223 12.512 -0.0319339 28.064 6.15099e-05C43.56 0.0320569 55.984 12.4623 56 27.956C56.016 43.5218 43.568 56 28.008 56ZM41.384 18.4774C41.44 17.3256 41.248 16.3417 39.832 16.3577C39.2 16.3657 38.544 16.6297 37.936 16.8776C30.512 19.9252 23.096 22.9887 15.68 26.0603C14.04 26.7402 12.408 27.4441 10.784 28.172C10.272 28.404 9.776 28.7159 9.784 29.3878C9.784 30.1077 10.36 30.2997 10.888 30.4757C12.528 31.0196 14.152 31.6195 15.824 32.0274C17.328 32.3874 18.768 32.2754 20.168 31.2915C23.784 28.7479 27.488 26.3163 31.176 23.8846C31.856 23.4367 32.824 22.4368 33.408 23.1407C33.992 23.8366 32.84 24.5805 32.256 25.1484C29.624 27.7001 26.968 30.2197 24.304 32.7393C23.424 33.5792 23.128 34.5151 24.176 35.331C27.424 37.8586 30.752 40.2982 34.44 42.154C36.384 43.1298 37.536 42.4419 37.92 40.2822C38.424 37.4347 38.872 34.5791 39.32 31.7235C40.032 27.3081 40.704 22.8928 41.384 18.4774Z"
            fill="inherit" />
    </g>
    <defs>
        <clipPath id="clip0_269_4080">
            <rect width="56" height="56" fill="inherit" />
        </clipPath>
    </defs>
</svg>

<svg width="56" height="56" viewBox="0 0 56 56" fill="inherit" xmlns="http://www.w3.org/2000/svg"><g clip-path="url(#clip0_269_4080)"><path d="M28.008 56C12.448 56.008-.008 43.53 0 27.972A27.905 27.905 0 0128.064 0 27.9 27.9 0 0156 27.956C56.016 43.522 43.568 56 28.008 56zm13.376-37.523c.056-1.151-.136-2.135-1.552-2.12-.632.009-1.288.273-1.896.52A7656.102 7656.102 0 0015.68 26.06c-1.64.68-3.272 1.384-4.896 2.112-.512.232-1.008.544-1 1.216 0 .72.576.912 1.104 1.088 1.64.544 3.264 1.143 4.936 1.551 1.504.36 2.944.248 4.344-.736 3.616-2.543 7.32-4.975 11.008-7.406.68-.448 1.648-1.448 2.232-.744.584.696-.568 1.44-1.152 2.007a889.016 889.016 0 01-7.952 7.591c-.88.84-1.176 1.776-.128 2.592 3.248 2.528 6.576 4.967 10.264 6.823 1.944.976 3.096.288 3.48-1.872.504-2.847.952-5.703 1.4-8.558.712-4.416 1.384-8.831 2.064-13.247z"/></g><defs><clipPath id="clip0_269_4080"><path d="M0 0h56v56H0z"/></clipPath></defs></svg>
